!!!OTL: BIN ALBEN E WERTHI TOCHTER GSY
!!!ARE: Europa, Mitteleuropa, Schweiz
!!!SCT: E0879
!!!YEM: Copyright 1995, estate of Helmut Schaffrath.
**kern
*ICvox
*Ivox
*M2/4
*k[]
*a:
{8e
=1
8a
16a
16g#
8a
8b
=2
8ccn
8a
8gn}
{16b
16ccn
=3
8dd
8ccn
8b
8a
=4
8ccn
8b
8a}
{16ccn
16b
=5
8a
16a
16b
8ccn
8a
=6
16a
16gn
16f#
16gn
8e}
{8e
=7
8a
16a
16g#
8a
8b
=8
8ccn
8a
8gn}
{16b
16ccn
=9
8dd
8ccn
8b
8a
=10
8ccn
8b
8a}
{16ccn
16b
=11
8a
16a
16b
8ccn
8a
=12
16a
16gn
16f#
16gn
4e}
=13
{4ee
4dd
=14
4ccn
4gn}
=15
{8ccn
16ccn
16ccn
8dd
16dd
16dd
=16
8ee
8ee
8dd}
{16b
16dd
=17
8ee
8ccn
8ccn
16b
16ccn
=18
8dd
8b
8b}
{16dd
16b
=19
8ccn
8a
16a
16b
16ccn
16a
=20
16b
16ccn
16b
16a
8g#}
{8e
=21
8.a
16b
8ccn
8dd
=22
16ee
16dd
16ee
16ffn
8ee}
{8dd
=23
16ccn
16b
16a
16ccn
16b
16a
16g#
16b
=24
4a
8r}
==
!!!AGN: Hochzeits -, Ehestands - Lied
!!!ONB: ESAC (Essen Associative Code) Database: ERK2
!!!AMT: simple duple
!!!AIN: vox
!!!EED: Helmut Schaffrath
!!!EEV: 1.0
*-
